www/images/lock.svg

<svg fill="none" height="75" viewBox="0 0 75 75" width="75" xmlns="http://www.w3.org/2000/svg"><path clip-rule="evenodd" d="m16.7543 58.9955c0 3.3021 2.7104 6.0091 6.0091 6.0091h29.279c3.2988 0 6.0058-2.7071 6.0124-6.0091v-17.0917c0-3.3021-2.7104-6.0091-6.0091-6.0091h-29.279c-3.3021 0-6.0091 2.7104-6.0091 6.0091zm37.8266-31.8175v2.6245c0 1.1865-.9322 2.1154-2.1154 2.1154-1.1833 0-2.1154-.9322-2.1154-2.1154v-2.6245c0-7.11-5.8408-12.9472-12.9472-12.9472-7.11 0-12.9472 5.8408-12.9472 12.9472v2.6245c0 1.1832-.9321 2.1154-2.1154 2.1154s-2.1154-.9322-2.1154-2.1154v-2.6245c0-9.4765 7.7015-17.178 17.178-17.178s17.178 7.7018 17.178 17.178zm-14.7198 30.9671v-7.295c1.7467-.7706 2.954-2.5171 2.954-4.5464 0-3.0823-2.7741-5.4969-5.9592-4.9061-1.9008.3339-3.4935 1.8751-3.9044 3.7759-.5394 2.4916.7964 4.7519 2.8513 5.6766v7.295c0 1.1302.8989 2.0292 2.0291 2.0292s2.0292-.899 2.0292-2.0292z" fill="#fff" fill-rule="evenodd"/></svg>

<svg width="75" height="75" viewBox="0 0 75 75" fill="none" xmlns="http://www.w3.org/2000/svg">
<path fill-rule="evenodd" clip-rule="evenodd" d="M16.7543 58.9955C16.7543 62.2976 19.4647 65.0046 22.7634 65.0046H52.0424C55.3412 65.0046 58.0482 62.2975 58.0548 58.9955V41.9038C58.0548 38.6017 55.3444 35.8947 52.0457 35.8947H22.7667C19.4646 35.8947 16.7576 38.6051 16.7576 41.9038L16.7543 58.9955ZM54.5809 27.178V29.8025C54.5809 30.989 53.6487 31.9179 52.4655 31.9179C51.2822 31.9179 50.3501 30.9857 50.3501 29.8025V27.178C50.3501 20.068 44.5093 14.2308 37.4029 14.2308C30.2929 14.2308 24.4557 20.0716 24.4557 27.178V29.8025C24.4557 30.9857 23.5236 31.9179 22.3403 31.9179C21.157 31.9179 20.2249 30.9857 20.2249 29.8025V27.178C20.2249 17.7015 27.9264 10 37.4029 10C46.8794 10 54.5809 17.7018 54.5809 27.178ZM39.8611 58.1451V50.8501C41.6078 50.0795 42.8151 48.333 42.8151 46.3037C42.8151 43.2214 40.041 40.8068 36.8559 41.3976C34.9551 41.7315 33.3624 43.2727 32.9515 45.1735C32.4121 47.6651 33.7479 49.9254 35.8028 50.8501V58.1451C35.8028 59.2753 36.7017 60.1743 37.8319 60.1743C38.9621 60.1743 39.8611 59.2753 39.8611 58.1451Z" fill="white"/>
</svg>
